img/circlesBottom.svg

<svg width="132" height="163" viewBox="0 0 132 163" fill="none" xmlns="http://www.w3.org/2000/svg">
<g opacity="0.4" clip-path="url(#clip0_2234_9739)">
<path d="M129.089 0C57.7268 0 0 57.7268 0 129.089C0 200.273 57.7268 258.177 129.089 258.177C200.273 258.177 258.177 200.45 258.177 129.089C258 57.7268 200.273 0 129.089 0ZM129.089 249.855C62.3308 249.855 8.32258 195.846 8.32258 129.089C8.32258 62.3308 62.3308 8.32258 129.089 8.32258C195.846 8.32258 249.855 62.3308 249.855 129.089C249.855 195.669 195.669 249.855 129.089 249.855Z" fill="white"/>
<path d="M129.089 27.8008C73.3095 27.8008 27.978 73.1323 27.978 128.911C27.978 184.69 73.3095 230.022 129.089 230.022C184.868 230.022 230.199 184.867 230.199 129.088C230.199 73.1323 184.868 27.8008 129.089 27.8008ZM129.089 214.616C81.8092 214.616 43.3837 176.191 43.3837 128.911C43.3837 81.6319 81.8092 43.2064 129.089 43.2064C176.368 43.2064 214.793 81.6319 214.793 128.911C214.793 176.191 176.368 214.616 129.089 214.616Z" fill="white"/>
</g>
<defs>
<clipPath id="clip0_2234_9739">
<rect width="258" height="258" fill="white"/>
</clipPath>
</defs>
</svg>

<svg width="132" height="163" fill="none" xmlns="http://www.w3.org/2000/svg"><g opacity=".4" clip-path="url(#clip0_2234_9739)" fill="#fff"><path d="M129.089 0C57.727 0 0 57.727 0 129.089c0 71.184 57.727 129.088 129.089 129.088 71.184 0 129.088-57.727 129.088-129.088C258 57.727 200.273 0 129.089 0zm0 249.855c-66.758 0-120.766-54.009-120.766-120.766C8.323 62.331 62.33 8.323 129.089 8.323c66.757 0 120.766 54.008 120.766 120.766 0 66.58-54.186 120.766-120.766 120.766z"/><path d="M129.089 27.8c-55.78 0-101.111 45.332-101.111 101.111s45.331 101.111 101.111 101.111c55.779 0 101.11-45.155 101.11-100.934 0-55.956-45.331-101.287-101.11-101.287zm0 186.816c-47.28 0-85.705-38.425-85.705-85.705s38.425-85.705 85.705-85.705c47.279 0 85.704 38.426 85.704 85.705 0 47.28-38.425 85.705-85.704 85.705z"/></g><defs><clipPath id="clip0_2234_9739"><path fill="#fff" d="M0 0h258v258H0z"/></clipPath></defs></svg>
